assets/icons/qvision/print_disabled.svg

<svg xmlns="http://www.w3.org/2000/svg" height="24" viewBox="0 0 24 24" width="24"><path d="M0 0h24v24H0V0z" fill="none"/><path d="M19.1 17H22v-6c0-1.7-1.3-3-3-3h-9l9.1 9zm-.1-7c.55 0 1 .45 1 1s-.45 1-1 1-1-.45-1-1 .45-1 1-1zm-1-3V3H6v1.1L9 7zM1.2 1.8L0 3l4.9 5C3.3 8.1 2 9.4 2 11v6h4v4h11.9l3 3 1.3-1.3-21-20.9zM8 19v-5h2.9l5 5H8z"/></svg>

<svg width="24" height="24" viewBox="0 0 24 24" fill="none" xmlns="http://www.w3.org/2000/svg">
<g clip-path="url(#clip0_147_1959)">
<path d="M19.1 17H22V11C22 9.3 20.7 8 19 8H10L19.1 17ZM19 10C19.55 10 20 10.45 20 11C20 11.55 19.55 12 19 12C18.45 12 18 11.55 18 11C18 10.45 18.45 10 19 10ZM18 7V3H6V4.1L9 7H18ZM1.2 1.8L0 3L4.9 8C3.3 8.1 2 9.4 2 11V17H6V21H17.9L20.9 24L22.2 22.7L1.2 1.8ZM8 19V14H10.9L15.9 19H8Z" fill="#323232"/>
</g>
<defs>
<clipPath id="clip0_147_1959">
<rect width="24" height="24" fill="white"/>
</clipPath>
</defs>
</svg>
